Yaru++/actions/symbolic/appointment-symbolic.svg

<svg height="16" width="16" xmlns="http://www.w3.org/2000/svg">
  <path d="m6 0-1 .25v.75h1zm0 1v1h-1v-1h-.006c-1.259.014-2.18-.03-2.932.384-.376.208-.675.56-.84.999-.164.438-.222.96-.222 1.617v8c0 .657.058 1.178.222 1.617.165.439.464.788.84.996.753.415 1.674.372 2.932.387h6.012c1.258-.015 2.178.028 2.931-.387a1.87 1.87 0 0 0 .838-.996c.165-.439.225-.99.225-1.617v-8c0-.658-.06-1.179-.225-1.617a1.88 1.88 0 0 0 -.838-.998c-.753-.416-1.673-.37-2.931-.385h-.006v1h-1v-1zm4 0h1v-1l-1 .25zm-4.994 4h5.994c1.26.014 2.087.06 2.453.261.183.102.289.213.386.473.098.26.16 1.266.16 1.266v5c0 .592-.062 1.005-.16 1.265-.097.26-.203.372-.386.473-.366.202-1.194.247-2.453.262h-6c-1.26-.015-2.087-.06-2.454-.262-.183-.101-.289-.213-.386-.473-.098-.26-.16-.673-.16-1.265v-5c0-.593.062-1.006.16-1.266.097-.26.203-.371.386-.473.367-.202 1.196-.247 2.46-.261z" fill="#808080"/>
</svg>

<svg height="16" width="16" xmlns="http://www.w3.org/2000/svg">
    <path d="M6 0L5 .25V1h1zm0 1v1H5V1h-.006c-1.259.014-2.18-.03-2.932.384-.376.208-.675.56-.84.999C1.058 2.821 1 3.343 1 4v8c0 .657.058 1.178.222 1.617.165.439.464.788.84.996.753.415 1.674.372 2.932.387h6.012c1.258-.015 2.178.028 2.931-.387a1.87 1.87 0 0 0 .838-.996c.165-.439.225-.99.225-1.617V4c0-.658-.06-1.179-.225-1.617a1.88 1.88 0 0 0-.838-.998c-.753-.416-1.673-.37-2.931-.385H11v1h-1V1zm4 0h1V0l-1 .25zM5.006 5H11c1.26.014 2.087.06 2.453.261.183.102.289.213.386.473.098.26.16 1.266.16 1.266v5c0 .592-.062 1.005-.16 1.265-.097.26-.203.372-.386.473-.366.202-1.194.247-2.453.262H5c-1.26-.015-2.087-.06-2.454-.262-.183-.101-.289-.213-.386-.473C2.062 13.005 2 12.592 2 12V7c0-.593.062-1.006.16-1.266.097-.26.203-.371.386-.473.367-.202 1.196-.247 2.46-.261z" fill="gray" font-family="sans-serif" font-weight="400" overflow="visible" style="line-height:normal;text-indent:0;text-align:start;text-decoration-line:none;text-decoration-style:solid;text-decoration-color:#000;text-transform:none;isolation:auto;mix-blend-mode:normal;marker:none" white-space="normal" color="#000"/>
</svg>
